img/svg/innovation.svg

<svg width="120" height="120" viewBox="0 0 120 120" fill="none" xmlns="http://www.w3.org/2000/svg">
<path d="M101.953 52.0758C101.116 49.7255 98.8886 48.1579 96.3935 48.1623C93.9008 48.1699 91.6825 49.7454 90.8543 52.0967H78.6885V44.2279H86.5574C87.6435 44.2281 88.5244 43.3478 88.5246 42.2616C88.5246 42.2614 88.5246 42.2609 88.5246 42.2607V34.0293C91.5976 32.9429 93.2083 29.5711 92.1219 26.4979C91.0355 23.4248 87.6637 21.8142 84.5904 22.9006C81.5172 23.987 79.9067 27.3588 80.9931 30.4321C81.5872 32.1128 82.9094 33.435 84.5902 34.0293V40.2937H78.6885V36.3593C78.6888 35.2731 77.8085 34.3923 76.7223 34.392C76.7221 34.392 76.7216 34.392 76.7213 34.392H72.7869V24.193C75.8599 23.1066 77.4706 19.7348 76.3842 16.6616C75.2978 13.5885 71.926 11.9779 68.8527 13.0643C65.7797 14.1507 64.169 17.5225 65.2554 20.5957C65.8495 22.2765 67.1717 23.5987 68.8525 24.193V34.3918H60.9836V2.98549C60.9839 1.89935 60.1035 1.01853 59.0174 1.01828C59.0172 1.01828 59.0167 1.01828 59.0164 1.01828C34.7481 1.01828 15.7377 18.5887 15.7377 41.0176C15.7377 51.672 19.967 65.7787 26.7765 77.8298C27.9994 79.993 29.5948 82.2676 31.2834 84.6767C34.8541 89.7666 38.8279 95.4905 39.2599 100.473C37.7476 101.542 36.8626 103.29 36.8968 105.142C36.9025 106.472 37.3618 107.761 38.1989 108.795C37.0345 109.943 36.3834 111.514 36.3935 113.149C36.3969 116.407 39.0372 119.048 42.2951 119.051H75.7377C79.0178 119.031 81.6605 116.355 81.6401 113.075C81.6399 113.054 81.6396 113.032 81.6394 113.011C81.6381 111.411 80.9843 109.881 79.8288 108.774C80.6767 107.7 81.1372 106.372 81.136 105.004C81.1301 101.888 78.5995 99.3669 75.4837 99.3728C75.4006 99.373 75.3175 99.375 75.2344 99.3787H60.9836V61.9325H64.9181V67.8342C64.9178 68.9203 65.7981 69.8011 66.8843 69.8014C66.8845 69.8014 66.885 69.8014 66.8853 69.8014H72.7869V72.1311C69.7139 73.2175 68.1035 76.5895 69.1901 79.6623C70.2767 82.7351 73.6485 84.3457 76.7213 83.2591C79.7944 82.1727 81.4048 78.8007 80.3181 75.7279C79.724 74.0471 78.4018 72.7252 76.7213 72.1311V67.8342C76.7216 66.748 75.8413 65.8672 74.7551 65.867C74.7549 65.867 74.7544 65.867 74.7541 65.867H68.8525V61.9325H76.7213C77.8075 61.9328 78.6883 61.0525 78.6885 59.9663C78.6885 59.9661 78.6885 59.9656 78.6885 59.9653V56.0309H90.8545C91.9468 59.0958 95.3167 60.6949 98.3816 59.6026C101.446 58.5106 103.045 55.1407 101.953 52.0758ZM86.5574 26.5227C87.6438 26.5227 88.5246 27.4035 88.5246 28.4899C88.5246 29.5763 87.6438 30.4571 86.5574 30.4571C85.471 30.4571 84.5902 29.5763 84.5902 28.4899C84.5912 27.404 85.4715 26.5239 86.5574 26.5227ZM34.5049 82.4174C32.8719 80.0889 31.3304 77.8913 30.2017 75.8934C23.8055 64.5723 19.6722 50.8825 19.6722 41.0176C19.6722 21.3993 35.9354 5.90361 57.0492 4.995V18.738C56.5269 18.7771 55.994 18.8245 55.424 18.8943C54.589 18.9959 53.911 19.6175 53.7374 20.4408L53.1379 23.2918C52.6441 23.4091 52.1518 23.5416 51.6605 23.6894L49.6999 21.5031C49.1383 20.8748 48.2388 20.6747 47.4637 21.0057C45.2619 21.9551 43.1838 23.1686 41.2749 24.6192C40.6028 25.1257 40.3276 26.0039 40.59 26.8035L41.493 29.5547C41.1212 29.9043 40.7592 30.2673 40.4086 30.6381L37.6604 29.7352C36.8609 29.4762 35.985 29.7504 35.476 30.419C34.0235 32.3284 32.809 34.4075 31.8595 36.6108C31.529 37.3859 31.7292 38.2852 32.357 38.847L34.5443 40.8066C34.3972 41.2928 34.2657 41.7799 34.1496 42.2685L31.0904 42.8793C30.1707 43.0628 29.5085 43.8703 29.5085 44.8082V51.5164C29.5085 52.4543 30.1707 53.2618 31.0906 53.4452L34.1499 54.0561C34.2662 54.5439 34.3977 55.0313 34.5445 55.5179L32.3565 57.4775C31.7295 58.0399 31.5295 58.9387 31.859 59.7138C32.8087 61.9168 34.023 63.9961 35.4755 65.9056C35.984 66.5749 36.8604 66.8491 37.6599 66.5894L40.4081 65.6865C40.7597 66.0573 41.1207 66.4202 41.4925 66.7699L40.5895 69.5171C40.3274 70.3166 40.6021 71.1942 41.2734 71.7015C43.1823 73.1543 45.2614 74.369 47.4642 75.3189C48.2393 75.6479 49.1378 75.448 49.7004 74.8215L51.661 72.6352C52.1518 72.7832 52.6444 72.9157 53.1384 73.0328L53.7369 75.8818C53.9098 76.7058 54.588 77.3284 55.4235 77.4302C55.9943 77.5001 56.5274 77.5475 57.0497 77.5866V99.3789H43.1095C42.3052 93.5813 38.1986 87.6839 34.5049 82.4174ZM41.3115 48.162C41.324 57.1729 48.0952 64.7405 57.0492 65.7509V72.5159L56.7236 70.9675C56.5594 70.1833 55.936 69.5769 55.1474 69.4345C53.9813 69.2223 52.8349 68.9132 51.7203 68.5104C51.5066 68.4344 51.2813 68.3956 51.0546 68.3951C50.4954 68.3951 49.9626 68.6334 49.5898 69.0502L47.7399 71.1135C46.7147 70.6013 45.7254 70.0202 44.7785 69.375L45.6325 66.7758C45.8826 66.014 45.6458 65.177 45.034 64.6589C44.1268 63.8909 43.2846 63.0492 42.5164 62.1423C41.9968 61.5347 41.1625 61.2996 40.4022 61.5467L37.804 62.4017C37.1582 61.4545 36.5772 60.4648 36.0645 59.4393L38.1295 57.5894C38.7251 57.0546 38.9381 56.2126 38.6683 55.4589C38.266 54.344 37.9569 53.1976 37.7442 52.0318C37.6006 51.2368 36.9854 50.6105 36.1928 50.4526L33.4426 49.9028V46.4218L36.1928 45.8725C36.9851 45.7148 37.6006 45.0883 37.7442 44.2933C37.9569 43.1267 38.266 41.9796 38.6681 40.8639C38.9383 40.11 38.7249 39.2678 38.1283 38.7334L36.0649 36.8852C36.5781 35.8603 37.159 34.8706 37.8035 33.9229L40.4026 34.7779C41.163 35.0247 41.9971 34.7899 42.5169 34.1823C43.2871 33.2747 44.1298 32.4312 45.0364 31.6598C45.6458 31.1427 45.8813 30.3079 45.632 29.5485L44.779 26.9493C45.7259 26.3043 46.7149 25.7235 47.7394 25.2108L49.5893 27.2742C50.1244 27.8693 50.9658 28.0825 51.7198 27.8139C52.8344 27.4109 53.9808 27.1018 55.1469 26.8898C55.9353 26.7482 56.5586 26.1425 56.7231 25.3586L57.0492 23.8102V30.5732C48.0952 31.5839 41.324 39.1512 41.3115 48.162ZM57.0492 34.5487V61.7754C49.5308 60.6991 44.3083 53.7315 45.3846 46.213C46.2504 40.1658 51.0017 35.4145 57.0492 34.5487ZM77.7049 113.149C77.704 114.235 76.8236 115.116 75.7377 115.117H42.2951C41.1888 115.098 40.307 114.186 40.3257 113.08C40.3262 113.057 40.3269 113.034 40.3279 113.011C40.3289 111.925 41.2092 111.045 42.2951 111.044H75.7377C76.844 111.062 77.7258 111.975 77.7072 113.081C77.7069 113.104 77.7062 113.127 77.7049 113.149ZM75.2344 103.313C76.2253 103.222 77.103 103.951 77.1942 104.942C77.2003 105.009 77.2028 105.075 77.2016 105.142C77.2006 106.228 76.3203 107.108 75.2344 107.109H42.7985C41.6922 107.091 40.8104 106.179 40.829 105.072C40.8295 105.049 40.8303 105.027 40.8313 105.004C40.8733 104.023 41.7025 103.262 42.6831 103.305C42.7217 103.306 42.7601 103.309 42.7985 103.313H75.2344V103.313ZM74.7541 75.703C75.8405 75.703 76.7213 76.5839 76.7213 77.6702C76.7213 78.7566 75.8405 79.6375 74.7541 79.6375C73.6677 79.6375 72.7869 78.7566 72.7869 77.6702C72.7879 76.5844 73.6682 75.7043 74.7541 75.703ZM70.8197 16.6866C71.9061 16.6866 72.7869 17.5675 72.7869 18.6539C72.7869 19.7402 71.9061 20.6211 70.8197 20.6211C69.7333 20.6211 68.8525 19.7402 68.8525 18.6539C68.8535 17.568 69.7338 16.6879 70.8197 16.6866ZM74.7541 57.9981H60.9836V38.326H74.7541V57.9981ZM96.3935 56.0309C95.3071 56.0309 94.4262 55.1501 94.4262 54.0637C94.4262 52.9773 95.3071 52.0965 96.3935 52.0965C97.4799 52.0965 98.3607 52.9773 98.3607 54.0637C98.3597 55.1498 97.4794 56.0299 96.3935 56.0309Z" fill="black"/>
<path d="M77.9882 90.9413C77.2945 92.1816 76.6807 93.465 76.1508 94.7835L79.8086 96.2321C80.2773 95.069 80.8198 93.9371 81.4328 92.8434L77.9882 90.9413Z" fill="black"/>
<path d="M82.4134 84.0118C81.6403 85.1223 80.8689 86.2517 80.1312 87.393L83.4337 89.5294C84.1483 88.4267 84.8946 87.3354 85.6429 86.2596L82.4134 84.0118Z" fill="black"/>
<path d="M86.8888 77.4666C86.2251 78.5193 85.4855 79.6087 84.7104 80.7268L87.9418 82.9707C88.7535 81.8026 89.5256 80.6634 90.2183 79.5607L86.8888 77.4666Z" fill="black"/>
<path d="M90.5801 70.6102C90.0163 71.7898 89.4268 72.9558 88.8118 74.1086L92.2813 75.9644C92.9248 74.76 93.5413 73.5401 94.1304 72.3047L90.5801 70.6102Z" fill="black"/>
<path d="M93.6528 63.3907C93.1957 64.6067 92.7086 65.8247 92.1937 67.033L95.8151 68.5739C96.3511 67.3116 96.8579 66.045 97.3357 64.7739L93.6528 63.3907Z" fill="black"/>
<path d="M102.293 40.6257L98.3587 40.6564L98.3607 41.0176C98.3607 42.1146 98.3097 43.2807 98.2079 44.4794L102.129 44.8099C102.239 43.5017 102.295 42.226 102.295 41.0176L102.293 40.6257Z" fill="black"/>
<path d="M101.291 32.2515L97.4606 33.1468C97.7481 34.3765 97.9667 35.6215 98.1157 36.8756L102.023 36.4106C101.856 35.012 101.612 33.6234 101.291 32.2515Z" fill="black"/>
<path d="M98.4634 24.302L94.9266 26.0233C95.4797 27.1596 95.9697 28.3257 96.3944 29.5158L100.1 28.198C99.6275 26.8699 99.0811 25.5691 98.4634 24.302Z" fill="black"/>
<path d="M93.9632 17.1784L90.8818 19.6259C91.6692 20.6174 92.4035 21.6497 93.0814 22.7188L96.4067 20.6171C95.6538 19.4284 94.8381 18.2806 93.9632 17.1784Z" fill="black"/>
<path d="M88.0674 11.175L85.5605 14.2065C86.5384 15.0155 87.4743 15.8742 88.3643 16.7788L91.169 14.0201C90.1842 13.0195 89.1489 12.0701 88.0674 11.175Z" fill="black"/>
<path d="M81.1072 6.48566L79.2361 9.94746C80.3599 10.5546 81.4598 11.2193 82.5049 11.9223L84.7008 8.65648C83.5507 7.88435 82.3424 7.15426 81.1072 6.48566Z" fill="black"/>
<path d="M73.396 3.2218L72.2048 6.9718C73.4304 7.35983 74.6361 7.80565 75.7896 8.29549L77.3284 4.67606C76.0616 4.13606 74.7379 3.6482 73.396 3.2218Z" fill="black"/>
<path d="M65.234 1.41589L64.7307 5.31958C65.9995 5.48286 67.2693 5.70393 68.5047 5.9786L69.3558 2.13639C68.0063 1.8386 66.6192 1.59639 65.234 1.41589Z" fill="black"/>
<path d="M7.86888 107.178H3.93445V111.113H7.86888V107.178Z" fill="black"/>
<path d="M7.86888 115.047H3.93445V118.982H7.86888V115.047Z" fill="black"/>
<path d="M11.8033 111.113H7.86884V115.047H11.8033V111.113Z" fill="black"/>
<path d="M3.93443 111.113H0V115.047H3.93443V111.113Z" fill="black"/>
<path d="M116.066 0.948944H112.131V4.88337H116.066V0.948944Z" fill="black"/>
<path d="M116.066 8.81778H112.131V12.7522H116.066V8.81778Z" fill="black"/>
<path d="M120 4.88336H116.066V8.81779H120V4.88336Z" fill="black"/>
<path d="M112.131 4.88336H108.197V8.81779H112.131V4.88336Z" fill="black"/>
</svg>

<svg width="120" height="120" viewBox="0 0 120 120" fill="none" xmlns="http://www.w3.org/2000/svg"><path d="M101.953 52.076a5.89 5.89 0 00-5.56-3.914 5.892 5.892 0 00-5.539 3.935H78.69v-7.87h7.868a1.967 1.967 0 001.968-1.965v-8.233a5.902 5.902 0 10-3.935 0v6.265H78.69v-3.935c0-1.086-.88-1.967-1.967-1.967h-3.935V24.193a5.902 5.902 0 10-3.934 0v10.199h-7.87V2.985c0-1.086-.88-1.966-1.966-1.967-24.269 0-43.28 17.57-43.28 40 0 10.654 4.23 24.76 11.04 36.812 1.222 2.163 2.818 4.438 4.506 6.847 3.571 5.09 7.545 10.813 7.977 15.796a5.59 5.59 0 00-2.363 4.669 5.846 5.846 0 001.302 3.653 6.063 6.063 0 00-1.805 4.354 5.908 5.908 0 005.901 5.902h33.443a5.94 5.94 0 005.902-5.976v-.064a5.874 5.874 0 00-1.811-4.237 6.075 6.075 0 001.307-3.77 5.642 5.642 0 00-5.902-5.625h-14.25V61.932h3.934v5.902c0 1.086.88 1.967 1.966 1.967h5.902v2.33a5.901 5.901 0 103.934 0v-4.297c0-1.086-.88-1.967-1.966-1.967h-5.902v-3.935h7.868c1.087 0 1.967-.88 1.968-1.966V56.03h12.166a5.891 5.891 0 0011.098-3.955zM86.557 26.523a1.967 1.967 0 110 3.934 1.967 1.967 0 010-3.934zM34.505 82.417c-1.633-2.328-3.175-4.526-4.303-6.524-6.397-11.32-10.53-25.01-10.53-34.875 0-19.619 16.263-35.114 37.377-36.023v13.743a36.57 36.57 0 00-1.625.156 1.967 1.967 0 00-1.687 1.547l-.6 2.85c-.493.118-.985.25-1.477.398l-1.96-2.186a1.964 1.964 0 00-2.236-.497 29.6 29.6 0 00-6.19 3.613 1.967 1.967 0 00-.684 2.184l.903 2.752c-.372.35-.734.712-1.084 1.083l-2.749-.903a1.979 1.979 0 00-2.184.684 29.53 29.53 0 00-3.616 6.192 1.966 1.966 0 00.497 2.236l2.187 1.96a25.02 25.02 0 00-.394 1.462l-3.06.61a1.967 1.967 0 00-1.581 1.93v6.707c0 .938.662 1.746 1.582 1.93l3.059.61c.116.488.248.975.395 1.462l-2.189 1.96a1.97 1.97 0 00-.497 2.236 29.548 29.548 0 003.616 6.192 1.977 1.977 0 002.185.683l2.748-.903c.352.371.713.734 1.084 1.084l-.902 2.747c-.263.8.012 1.677.683 2.184a29.53 29.53 0 006.191 3.618 1.97 1.97 0 002.236-.498l1.961-2.186c.49.148.983.28 1.477.398l.599 2.849a1.967 1.967 0 001.686 1.548c.571.07 1.104.117 1.627.157v21.792H43.11c-.805-5.798-4.911-11.695-8.605-16.962zm6.806-34.255c.013 9.01 6.784 16.578 15.738 17.589v6.765l-.325-1.549a1.968 1.968 0 00-1.577-1.532 21.308 21.308 0 01-3.427-.925 1.965 1.965 0 00-2.13.54l-1.85 2.064a25.498 25.498 0 01-2.962-1.739l.855-2.6a1.969 1.969 0 00-.599-2.116 21.532 21.532 0 01-2.518-2.517 1.978 1.978 0 00-2.114-.595l-2.598.855a25.504 25.504 0 01-1.74-2.963l2.066-1.85a1.97 1.97 0 00.538-2.13 21.43 21.43 0 01-.924-3.427 1.967 1.967 0 00-1.551-1.58l-2.75-.55v-3.48l2.75-.55a1.967 1.967 0 001.551-1.579 21.58 21.58 0 01.924-3.43 1.968 1.968 0 00-.54-2.13l-2.063-1.848a25.848 25.848 0 011.739-2.962l2.599.855c.76.247 1.594.012 2.114-.596a22.017 22.017 0 012.52-2.522 1.966 1.966 0 00.595-2.111l-.853-2.6a25.644 25.644 0 012.96-1.738l1.85 2.063a1.974 1.974 0 002.13.54 21.267 21.267 0 013.428-.924 1.966 1.966 0 001.576-1.531l.326-1.549v6.763c-8.954 1.01-15.725 8.578-15.737 17.589zM57.05 34.549v27.226c-7.518-1.076-12.74-8.044-11.664-15.562A13.752 13.752 0 0157.05 34.549zm20.656 78.6a1.97 1.97 0 01-1.967 1.968H42.295a2.004 2.004 0 01-1.967-2.106 1.969 1.969 0 011.967-1.967h33.443a2.003 2.003 0 011.967 2.105zm-2.47-9.836a1.802 1.802 0 011.967 1.829 1.969 1.969 0 01-1.968 1.967H42.8a2.003 2.003 0 01-1.968-2.105 1.776 1.776 0 011.967-1.691h32.436zm-.48-27.61a1.967 1.967 0 11-.001 3.935 1.967 1.967 0 010-3.935zM70.82 16.687a1.967 1.967 0 110 3.934 1.967 1.967 0 010-3.934zm3.934 41.311h-13.77V38.326h13.77v19.672zm21.64-1.967a1.967 1.967 0 110-3.935 1.967 1.967 0 010 3.935z" fill="#000"/><path d="M77.988 90.941a33.345 33.345 0 00-1.837 3.843l3.658 1.448a29.427 29.427 0 011.624-3.389l-3.445-1.902zm4.425-6.929a119.66 119.66 0 00-2.282 3.381l3.303 2.136c.714-1.102 1.46-2.194 2.209-3.27l-3.23-2.247zm4.476-6.545a91.006 91.006 0 01-2.179 3.26l3.232 2.244a89.397 89.397 0 002.276-3.41l-3.33-2.094zm3.691-6.857a88.65 88.65 0 01-1.768 3.499l3.47 1.855a89.63 89.63 0 001.848-3.66l-3.55-1.694zm3.073-7.22a90.808 90.808 0 01-1.46 3.643l3.622 1.54a97.457 97.457 0 001.52-3.8l-3.682-1.382zm8.64-22.764l-3.934.03.002.362c0 1.097-.051 2.263-.153 3.461l3.921.33c.11-1.307.166-2.583.166-3.791l-.002-.392zm-1.002-8.374l-3.83.895a34 34 0 01.655 3.729l3.907-.465a38.064 38.064 0 00-.732-4.16zm-2.828-7.95l-3.536 1.721a34.39 34.39 0 011.467 3.493l3.706-1.318a37.824 37.824 0 00-1.637-3.896zm-4.5-7.124l-3.081 2.448a35.801 35.801 0 012.2 3.093l3.325-2.102a39.691 39.691 0 00-2.444-3.439zm-5.896-6.003l-2.506 3.031a37.185 37.185 0 012.803 2.573l2.805-2.759c-.985-1-2.02-1.95-3.102-2.845zm-6.96-4.689l-1.87 3.461a39.63 39.63 0 013.268 1.975L84.7 8.656a44.328 44.328 0 00-3.594-2.17zm-7.711-3.264l-1.191 3.75a40.81 40.81 0 013.585 1.323l1.538-3.619a44.214 44.214 0 00-3.932-1.454zm-8.162-1.806l-.503 3.904a42.39 42.39 0 013.774.659l.85-3.843a47.983 47.983 0 00-4.121-.72zM7.869 107.178H3.934v3.935H7.87v-3.935zm0 7.869H3.934v3.935H7.87v-3.935zm3.934-3.934H7.87v3.934h3.934v-3.934zm-7.869 0H0v3.934h3.934v-3.934zM116.066.949h-3.935v3.934h3.935V.95zm0 7.869h-3.935v3.934h3.935V8.818zM120 4.883h-3.934v3.935H120V4.883zm-7.869 0h-3.934v3.935h3.934V4.883z" fill="#000"/></svg>
